X:1
T: McLaughlin's Scottish Measure
C:
R:Reel
Q: 232
K:D
M:4/4
L:1/8
|:FE|D3F ED EF|A2 E2 E2 FE|D3F ED EF|AF ED d3e|
fe df ed Be|dB AF E3F|DE FG AB dA|F2 D2 D2:|
|:fe|d2 a2 fg af|b2 e2 e2 fe|d2 a2 fg ab|ag fe d3e|
fe df ed Be|dB AF E3F|DE FG AB dA|F2 D2 D2:|
